account-credit-card.svg

<svg fill="currentColor" viewBox="0 0 24 24"><path d="M7 12c2.2 0 4-1.8 4-4S9.2 4 7 4 3 5.8 3 8s1.8 4 4 4m4 8v-5.3c-1.1-.4-2.5-.7-4-.7-3.9 0-7 1.8-7 4v2zM22 4h-7c-1.1 0-2 .9-2 2v12c0 1.1.9 2 2 2h7c1.1 0 2-.9 2-2V6c0-1.1-.9-2-2-2m-4 14h-2V6h2z"/></svg>

<svg  viewBox="0 0 24 24" fill="currentColor"><path  d="M7 12C9.2 12 11 10.2 11 8S9.2 4 7 4 3 5.8 3 8 4.8 12 7 12M11 20V14.7C9.9 14.3 8.5 14 7 14C3.1 14 0 15.8 0 18V20H11M22 4H15C13.9 4 13 4.9 13 6V18C13 19.1 13.9 20 15 20H22C23.1 20 24 19.1 24 18V6C24 4.9 23.1 4 22 4M18 18H16V6H18V18Z"/></svg>
